svgs/duotone/table-pivot.svg

<svg xmlns="http://www.w3.org/2000/svg" viewBox="0 0 512 512"><!--! Font Awesome Pro 6.4.0 by @fontawesome - https://fontawesome.com License - https://fontawesome.com/license (Commercial License) Copyright 2023 Fonticons, Inc. --><defs><style>.fa-secondary{opacity:.4}</style></defs><path class="fa-primary" d="M64 32h64V160H0V96C0 60.7 28.7 32 64 32zM414.8 246.1c-2.5 6-8.3 9.9-14.8 9.9H384v48c0 26.5-21.5 48-48 48H288v16c0 6.5-3.9 12.3-9.9 14.8s-12.9 1.1-17.4-3.5l-32-32c-6.2-6.2-6.2-16.4 0-22.6l32-32c4.6-4.6 11.5-5.9 17.4-3.5s9.9 8.3 9.9 14.8v16h48c8.8 0 16-7.2 16-16V256H336c-6.5 0-12.3-3.9-14.8-9.9s-1.1-12.9 3.5-17.4l32-32c6.2-6.2 16.4-6.2 22.6 0l32 32c4.6 4.6 5.9 11.5 3.5 17.4z"/><path class="fa-secondary" d="M0 192V416c0 35.3 28.7 64 64 64H448c35.3 0 64-28.7 64-64V96c0-35.3-28.7-64-64-64H160V160H448V416H128V192H0z"/></svg>

<svg xmlns="http://www.w3.org/2000/svg" viewBox="0 0 512 512"><!--! Font Awesome Pro 6.3.0 by @fontawesome - https://fontawesome.com License - https://fontawesome.com/license (Commercial License) Copyright 2023 Fonticons, Inc. --><defs><style>.fa-secondary{opacity:.4}</style></defs><path class="fa-primary" d="M128 32V160H0V96C0 60.65 28.65 32 64 32H128zM414.8 246.1C412.3 252.1 406.5 256 400 256H384V304C384 330.5 362.5 352 336 352H288V368C288 374.5 284.1 380.3 278.1 382.8C272.1 385.3 265.3 383.9 260.7 379.3L228.7 347.3C222.4 341.1 222.4 330.9 228.7 324.7L260.7 292.7C265.3 288.1 272.1 286.7 278.1 289.2C284.1 291.7 288 297.5 288 303.1V319.1H336C344.8 319.1 352 312.8 352 303.1V255.1H336C329.5 255.1 323.7 252.1 321.2 246.1C318.7 240.1 320.1 233.3 324.7 228.7L356.7 196.7C362.9 190.4 373.1 190.4 379.3 196.7L411.3 228.7C415.9 233.3 417.3 240.1 414.8 246.1L414.8 246.1z"/><path class="fa-secondary" d="M128 192V416H448V160H160V32H448C483.3 32 512 60.65 512 96V416C512 451.3 483.3 480 448 480H64C28.65 480 0 451.3 0 416V192H128z"/></svg>
